!!!COM: Anon.
!!!OTL: Old War Song
!!!ODT: <1918//
!!!MPN: Apaugus [White Clay Nose, Butterfly]
!!!MLC: Fort Berthold Reservation, North Dakota, United States of America
!! Song was recorded during either the summer of 1912, 1915, or 1918.
!!!AGN: monody
!!!AST: Mandan and Hidatsa War Songs
!!!AMT: irregular
!!!RWG: Transcribed pitches, durations, and meters are only approximate.
!! Drum Tempo: MM80
!! Drum-rhythm: (8 8) (8 8) (8 8) (8 8)
**kern
*ICvox
*Imale
*clefG2
*k[b-]
*M3/4
*MM80
=1-
4a
4.a
8f
=2
8d
8d
4d
4A
=3
8f
8f
4f
8f
8f
=4
8d
16d
16c#
4d
8cn
8A
=5
4A
4.A
8F
*M2/4
=6
8d
8d
8.d
16c
=7
(12d
12d
12c)
4A
=8
8c
8A
4A
=9
4F
8F
8F
=10
2F
==
*-
!!!CNT: Hidatsa
!!!TXO: Hidatsa
!!!OCY: United States
!!!OCL: Frances Densmore
!!!YOR: Frances Densmore, "Mandan and Hidatsa Music",
!!!YOR: Bulletin 80, page 148, No. 79
!!!PPR: Smithsonian Institution, Bureau of American Ethnology
!!!PPR: Government Printing Office
!!!PDT: 1923
!!!PPP: Washington, DC, United States of America
!!!YEC: Electronic Copyright 2000 David Huron
!!!YER: August 2000
!!!YEN: United States of America
!!!ENC: David Huron
!!!RDT: August 18, 2000
!!!EEV: Release 1.0
!!!AIN: tom, vox
